X: 80
T:McQuillen's Squeezebox
% Nottingham Music Database
S:Ralph Page, via PR
M:4/4
L:1/4
K:C
EF |"C"G3/2A/2 GF|EG cA|"C"G3/2A/2 GF|E2 DE|"G"F3/2G/2 FE|DG Bd|\
 [1"C"c3/2d/2 "Am"cA|"G7"G2 :|
 [2"C"c3/2d"G"cB|"C"c2 |:cd |"C"e3/2f/2 ed|cG cd|"C"e3/2f/2 ed|
"C"c2 Bc|"G"d3/2e/2 fe|dG Bc|[1"G"d3/2e/2 "G/dim""c#"fe|"G"d2 :|[2"G7"dc ed|"C"c2 ||<end>
<start>
